X: 294
T:Hilf o Himmel
M:6/8
L:1/8
Q:1/4=90
C:trad.
O:France
A:Alsace
Z:S. Piron
K:C
e>fe d>cd|e2AA2G|c>Bc|d>cd|e>dc B2B|
A>Bc B>cd|e2AA2G|A>Bc B>ed|cAG A3||
W:
W: From "Falaleiro" http://home.t-online.de/home/pheld/homepage.htm
